X:3381
T:Convenience, The
S:Gill Pearson
R:Reel
O:Ireland
M:4/4
K:D
dABA dABA|GAFA EADA|dABA dABA|FAEA D4::
df f/f/f dfed|cAce gecA|df f/f/f dfed\
|1 cABc d4 :|2 cABc defg||
aAgA fAeA|Ae e/e/e Ae e/e/e|\
aAgA fAeA|Addc defg|
aA A/A/A aA A/A/A|gA A/A/A gA A/A/A|\
f2af gbag|fdec d4||


